X:212 
T:Toormore Jig, The 
B:CRE5.052 (Port an TÃÂÃÂÃÂÃÂºir MhÃÂÃÂÃÂÃÂ³ir)
F:file ID: cre.5/212toor
M:6/8
Q:160
R:jig
K:D
z|Add B2A|Add B2A|Add cde|fdf ecA|
Add B2A|Add B2A|Add cde|fdc d2:|
e|f2e fed|ege ecA| f2g fed|fab afe|
f2e fed|ege ecB|Add cde|fdc d2:|

%%%

